lib/brands/logos/docker.svg

<svg xmlns="http://www.w3.org/2000/svg" fill="none" aria-hidden="true" viewBox="0 0 203 59"><g id="Docker"><path id="Vector" fill="#2396ED" d="M58.6475 14.9363L60.0928 15.9827C62.6064 18.0103 64.0518 20.2994 64.366 22.9155C67.0681 22.3923 70.5244 22.7847 72.0326 23.8312L73.415 24.6814L73.1637 25.2047C72.7238 26.1857 72.5981 26.4473 72.5353 26.5781C70.0845 31.4834 65.2458 31.5488 62.9835 31.4834C57.265 45.8068 45.0739 53.7207 28.6096 53.7207C21.0059 53.7207 15.2246 51.3007 11.3285 46.5263C6.17552 40.2475 6.17552 32.0721 6.6154 29.4559L6.74108 28.9327H52.1749C54.5628 28.9327 56.3852 28.2786 57.265 27.7554C56.3224 26.3165 56.0082 24.6814 55.9453 23.7658C55.7568 21.1496 56.3852 18.4027 57.642 16.4406L58.6475 14.9363ZM98.0141 17.9732C98.521 17.9732 98.9502 18.1431 99.3016 18.483C99.653 18.8229 99.8287 19.2521 99.8287 19.7706V35.9468C99.8287 38.6428 98.884 40.9241 96.9944 42.7906C95.0819 44.6801 92.8006 45.6248 90.1507 45.6248C87.4777 45.6248 85.1964 44.6801 83.3069 42.7906C81.4173 40.901 80.4726 38.6198 80.4726 35.9468C80.4726 33.2738 81.4173 30.9925 83.3069 29.103C85.1964 27.2135 87.4777 26.2687 90.1507 26.2687C92.4435 26.2687 94.4655 26.9773 96.2167 28.3944V19.7706C96.2167 19.2521 96.3867 18.8229 96.7266 18.483C97.0665 18.1431 97.4956 17.9732 98.0141 17.9732ZM111.564 26.2687C114.214 26.2687 116.495 27.2135 118.408 29.103C119.353 30.0478 120.058 31.0904 120.525 32.2311C120.992 33.3717 121.231 34.6103 121.242 35.9468C121.242 38.6428 120.297 40.9241 118.408 42.7906C116.495 44.6801 114.214 45.6248 111.564 45.6248C108.891 45.6248 106.61 44.6801 104.72 42.7906C102.831 40.901 101.886 38.6198 101.886 35.9468C101.886 33.2738 102.831 30.9925 104.72 29.103C106.61 27.2135 108.891 26.2687 111.564 26.2687ZM132.943 26.2687C135.374 26.2687 137.477 27.0522 139.251 28.6191C139.666 28.9878 139.873 29.4429 139.873 29.9844C139.873 30.5029 139.703 30.9349 139.363 31.2806C139.023 31.6262 138.594 31.799 138.076 31.799C137.638 31.799 137.246 31.6608 136.901 31.3843C136.313 30.8888 135.697 30.5144 135.051 30.2609C134.406 30.0074 133.703 29.8807 132.943 29.8807C132.102 29.8807 131.313 30.0391 130.575 30.356C129.838 30.6728 129.193 31.1049 128.64 31.6521C128.087 32.1994 127.652 32.8417 127.335 33.5791C127.018 34.3165 126.86 35.1057 126.86 35.9468C126.86 36.7878 127.018 37.5771 127.335 38.3144C127.652 39.0518 128.087 39.6941 128.64 40.2414C129.193 40.7887 129.838 41.2207 130.575 41.5376C131.313 41.8544 132.102 42.0129 132.943 42.0129C133.703 42.0129 134.406 41.889 135.051 41.6413C135.697 41.3936 136.307 41.022 136.883 40.5266C137.206 40.2846 137.586 40.1579 138.024 40.1464C138.542 40.1464 138.972 40.3163 139.311 40.6562C139.651 40.9961 139.821 41.4253 139.821 41.9437C139.821 42.4507 139.631 42.8942 139.251 43.2745C137.465 44.8414 135.362 45.6248 132.943 45.6248C130.27 45.6248 127.989 44.6801 126.099 42.7906C124.21 40.901 123.265 38.6198 123.265 35.9468C123.265 33.2738 124.21 30.9925 126.099 29.103C127.989 27.2135 130.27 26.2687 132.943 26.2687ZM143.728 17.9732C144.223 17.9732 144.647 18.1489 144.998 18.5003C145.349 18.8517 145.525 19.2809 145.525 19.7878V33.268L155.86 26.5452C156.148 26.3609 156.471 26.2687 156.828 26.2687C157.081 26.2687 157.317 26.3148 157.536 26.407C157.755 26.4991 157.945 26.6287 158.107 26.7958C158.268 26.9629 158.398 27.1559 158.495 27.3748C158.593 27.5937 158.642 27.8241 158.642 28.0661C158.642 28.7113 158.412 29.1894 157.951 29.5005L150.71 34.2013L158.141 42.5659C158.475 42.9346 158.642 43.3551 158.642 43.8275C158.642 44.0694 158.593 44.2999 158.495 44.5188C158.398 44.7377 158.268 44.9307 158.107 45.0977C157.945 45.2648 157.755 45.3944 157.536 45.4866C157.317 45.5788 157.081 45.6248 156.828 45.6248C156.344 45.6248 155.941 45.4693 155.618 45.1582L147.634 36.1887L145.525 37.5713V43.8102C145.525 44.3056 145.349 44.7319 144.998 45.0891C144.647 45.4463 144.223 45.6248 143.728 45.6248C143.221 45.6248 142.792 45.4463 142.44 45.0891C142.089 44.7319 141.913 44.3056 141.913 43.8102V19.7878C141.913 19.2809 142.089 18.8517 142.44 18.5003C142.792 18.1489 143.221 17.9732 143.728 17.9732ZM170.274 26.2687C172.924 26.2687 175.205 27.2135 177.118 29.103C178.063 30.0362 178.771 31.076 179.244 32.2224C179.716 33.3688 179.952 34.6103 179.952 35.9468C179.952 36.4652 179.776 36.8944 179.425 37.2343C179.074 37.5742 178.644 37.7441 178.137 37.7441H164.45C164.646 38.3778 164.934 38.9568 165.314 39.481C165.694 40.0052 166.141 40.4546 166.653 40.829C167.166 41.2035 167.731 41.4944 168.347 41.7018C168.963 41.9092 169.606 42.0129 170.274 42.0129C171.034 42.0129 171.732 41.8976 172.365 41.6672C172.999 41.4368 173.586 41.0911 174.128 40.6303C174.474 40.3422 174.871 40.1925 175.32 40.1809C175.839 40.1809 176.268 40.3509 176.608 40.6908C176.948 41.0306 177.118 41.4598 177.118 41.9783C177.118 42.4852 176.945 42.9173 176.599 43.2745C174.814 44.8414 172.705 45.6248 170.274 45.6248C167.601 45.6248 165.32 44.6801 163.43 42.7906C161.541 40.901 160.596 38.6198 160.596 35.9468C160.596 33.2738 161.541 30.9925 163.43 29.103C165.32 27.2135 167.601 26.2687 170.274 26.2687ZM191.618 26.2687C192.125 26.2687 192.67 26.3033 193.252 26.3724C193.833 26.4415 194.369 26.5654 194.859 26.744C195.348 26.9225 195.755 27.1674 196.077 27.4785C196.4 27.7895 196.561 28.1928 196.561 28.6882C196.561 28.9417 196.512 29.1779 196.414 29.3968C196.316 29.6157 196.187 29.8087 196.025 29.9757C195.864 30.1428 195.674 30.2724 195.455 30.3646C195.236 30.4568 195 30.5029 194.746 30.5029C194.528 30.5029 194.274 30.4395 193.986 30.3128C193.26 30.0247 192.471 29.8807 191.618 29.8807C190.777 29.8807 189.988 30.0391 189.251 30.356C188.513 30.6728 187.871 31.1049 187.324 31.6521C186.776 32.1994 186.344 32.8417 186.028 33.5791C185.711 34.3165 185.552 35.1057 185.552 35.9468V43.8275C185.552 44.3229 185.377 44.7463 185.025 45.0977C184.674 45.4491 184.25 45.6248 183.755 45.6248C183.248 45.6248 182.819 45.4491 182.467 45.0977C182.116 44.7463 181.94 44.3229 181.94 43.8275V28.0661C181.94 27.5706 182.116 27.1472 182.467 26.7958C182.819 26.4444 183.248 26.2687 183.755 26.2687C184.25 26.2687 184.674 26.4444 185.025 26.7958C185.377 27.1472 185.552 27.5706 185.552 28.0661V28.4117C186.416 27.7204 187.355 27.1904 188.369 26.8217C189.383 26.453 190.466 26.2687 191.618 26.2687ZM90.1507 29.8807C89.2981 29.8807 88.5031 30.042 87.7657 30.3646C87.0283 30.6872 86.3889 31.1221 85.8474 31.6694C85.3059 32.2167 84.8767 32.859 84.5598 33.5964C84.243 34.3338 84.0846 35.1172 84.0846 35.9468C84.0846 36.7763 84.243 37.5598 84.5598 38.2972C84.8767 39.0345 85.3059 39.6769 85.8474 40.2241C86.3889 40.7714 87.0283 41.2063 87.7657 41.5289C88.5031 41.8516 89.2981 42.0129 90.1507 42.0129C90.9917 42.0129 91.781 41.8516 92.5183 41.5289C93.2557 41.2063 93.898 40.7685 94.4453 40.2155C94.9926 39.6625 95.4246 39.0201 95.7415 38.2885C96.0583 37.5569 96.2167 36.7763 96.2167 35.9468C96.2167 35.1172 96.0583 34.3366 95.7415 33.605C95.4246 32.8734 94.9926 32.2311 94.4453 31.6781C93.898 31.125 93.2557 30.6872 92.5183 30.3646C91.781 30.042 90.9917 29.8807 90.1507 29.8807ZM111.564 29.8807C110.711 29.8807 109.917 30.042 109.179 30.3646C108.442 30.6872 107.802 31.1221 107.261 31.6694C106.719 32.2167 106.29 32.859 105.973 33.5964C105.656 34.3338 105.498 35.1172 105.498 35.9468C105.498 36.7763 105.656 37.5598 105.973 38.2972C106.29 39.0345 106.719 39.6769 107.261 40.2241C107.802 40.7714 108.442 41.2063 109.179 41.5289C109.917 41.8516 110.711 42.0129 111.564 42.0129C112.405 42.0129 113.194 41.8516 113.932 41.5289C114.669 41.2063 115.311 40.7685 115.859 40.2155C116.406 39.6625 116.838 39.0201 117.155 38.2885C117.472 37.5569 117.63 36.7763 117.63 35.9468C117.63 35.1172 117.472 34.3366 117.155 33.605C116.838 32.8734 116.406 32.2311 115.859 31.6781C115.311 31.125 114.669 30.6872 113.932 30.3646C113.194 30.042 112.405 29.8807 111.564 29.8807ZM170.274 29.8807C169.617 29.8807 168.978 29.9844 168.356 30.1918C167.734 30.3992 167.163 30.6901 166.645 31.0645C166.126 31.439 165.677 31.8883 165.297 32.4125C164.917 32.9368 164.634 33.5157 164.45 34.1494H176.098C175.902 33.5157 175.611 32.9368 175.225 32.4125C174.839 31.8883 174.39 31.439 173.877 31.0645C173.365 30.6901 172.8 30.3992 172.184 30.1918C171.567 29.9844 170.931 29.8807 170.274 29.8807ZM18.5551 21.0842V27.6246H11.6427V21.0842H18.5551ZM26.7244 21.0842V27.6246H19.8119V21.0842H26.7244ZM34.8937 21.0842V27.6246H27.9812V21.0842H34.8937ZM43.063 21.0842V27.6246H36.1505V21.0842H43.063ZM51.2323 21.0842V27.6246H44.3198V21.0842H51.2323ZM43.063 13.2358V19.7762H36.1505V13.2358H43.063ZM34.8937 13.2358V19.7762H27.9812V13.2358H34.8937ZM26.7244 13.2358V19.7762H19.8119V13.2358H26.7244ZM43.063 5.38734V11.9277H36.1505V5.38734H43.063Z"/></g></svg>

<svg xmlns="http://www.w3.org/2000/svg" fill="none" aria-hidden="true" viewBox="0 0 203 59"><path fill="#2396ED" d="m58.648 14.936 1.445 1.047c2.513 2.027 3.959 4.316 4.273 6.933 2.702-.524 6.158-.131 7.667.915l1.382.85-.251.524c-.44.98-.566 1.242-.629 1.373-2.45 4.905-7.29 4.97-9.551 4.905-5.719 14.324-17.91 22.238-34.374 22.238-7.604 0-13.385-2.42-17.282-7.195-5.152-6.279-5.152-14.454-4.713-17.07l.126-.523h45.434c2.388 0 4.21-.654 5.09-1.178-.943-1.438-1.257-3.074-1.32-3.99-.188-2.615.44-5.362 1.697-7.324l1.005-1.505Zm39.366 3.037c.507 0 .936.17 1.288.51.351.34.527.77.527 1.288v16.176c0 2.696-.945 4.977-2.835 6.844-1.912 1.89-4.193 2.834-6.843 2.834-2.673 0-4.955-.945-6.844-2.834-1.89-1.89-2.834-4.171-2.834-6.844s.944-4.955 2.834-6.844c1.89-1.89 4.17-2.834 6.844-2.834 2.293 0 4.315.708 6.066 2.125v-8.623c0-.519.17-.948.51-1.288.34-.34.769-.51 1.287-.51Zm13.55 8.296c2.65 0 4.931.945 6.844 2.834.945.945 1.65 1.987 2.117 3.128.467 1.14.706 2.38.717 3.716 0 2.696-.945 4.977-2.834 6.844-1.913 1.89-4.194 2.834-6.844 2.834-2.673 0-4.954-.945-6.844-2.834-1.889-1.89-2.834-4.171-2.834-6.844s.945-4.955 2.834-6.844c1.89-1.89 4.171-2.834 6.844-2.834Zm21.379 0c2.431 0 4.534.783 6.308 2.35.415.369.622.824.622 1.365 0 .519-.17.95-.51 1.297-.34.345-.769.518-1.287.518-.438 0-.83-.138-1.175-.415a6.63 6.63 0 0 0-1.85-1.123 5.714 5.714 0 0 0-2.108-.38c-.841 0-1.63.158-2.368.475a6.208 6.208 0 0 0-1.935 1.296 6.035 6.035 0 0 0-1.305 1.927 5.93 5.93 0 0 0-.475 2.368c0 .84.158 1.63.475 2.367.317.738.752 1.38 1.305 1.927a6.2 6.2 0 0 0 1.935 1.297 5.938 5.938 0 0 0 2.368.475c.76 0 1.463-.124 2.108-.372a6.224 6.224 0 0 0 1.832-1.114 1.937 1.937 0 0 1 1.141-.38c.518 0 .948.17 1.287.51.34.34.51.768.51 1.287 0 .507-.19.95-.57 1.33-1.786 1.567-3.889 2.35-6.308 2.35-2.673 0-4.954-.944-6.844-2.833-1.889-1.89-2.834-4.171-2.834-6.844s.945-4.955 2.834-6.844c1.89-1.89 4.171-2.834 6.844-2.834Zm10.785-8.296c.495 0 .919.176 1.27.527.351.352.527.78.527 1.288v13.48l10.335-6.723a1.76 1.76 0 0 1 .968-.276c.253 0 .489.046.708.138.219.092.409.222.571.389.161.167.291.36.388.579.098.219.147.45.147.691 0 .645-.23 1.123-.691 1.434l-7.241 4.701 7.431 8.365c.334.369.501.79.501 1.261 0 .242-.049.473-.147.692a1.988 1.988 0 0 1-.388.579 1.71 1.71 0 0 1-.571.389 1.806 1.806 0 0 1-.708.138c-.484 0-.887-.156-1.21-.467l-7.984-8.97-2.109 1.383v6.24c0 .495-.176.92-.527 1.278a1.717 1.717 0 0 1-1.27.536 1.74 1.74 0 0 1-1.288-.536 1.762 1.762 0 0 1-.527-1.279V19.788c0-.507.176-.936.527-1.288a1.753 1.753 0 0 1 1.288-.527Zm26.546 8.296c2.65 0 4.931.945 6.844 2.834.945.933 1.653 1.973 2.126 3.12.472 1.146.708 2.387.708 3.724 0 .518-.176.947-.527 1.287-.351.34-.781.51-1.288.51H164.45c.196.634.484 1.213.864 1.737s.827.974 1.339 1.348a6.221 6.221 0 0 0 1.694.873 6.001 6.001 0 0 0 1.927.31c.76 0 1.458-.114 2.091-.345a5.731 5.731 0 0 0 1.763-1.037 1.889 1.889 0 0 1 1.192-.45c.519 0 .948.17 1.288.51.34.34.51.77.51 1.288 0 .507-.173.94-.519 1.297-1.785 1.566-3.894 2.35-6.325 2.35-2.673 0-4.954-.945-6.844-2.834-1.889-1.89-2.834-4.171-2.834-6.844s.945-4.955 2.834-6.844c1.89-1.89 4.171-2.834 6.844-2.834Zm21.344 0c.507 0 1.052.034 1.634.103.581.07 1.117.193 1.607.372.489.179.896.423 1.218.735.323.31.484.714.484 1.21 0 .253-.049.489-.147.708a1.993 1.993 0 0 1-.389.579 1.697 1.697 0 0 1-.57.389 1.807 1.807 0 0 1-.709.138c-.218 0-.472-.064-.76-.19a6.361 6.361 0 0 0-2.368-.432c-.841 0-1.63.158-2.367.475a6.092 6.092 0 0 0-1.927 1.296 6.076 6.076 0 0 0-1.296 1.927 5.931 5.931 0 0 0-.476 2.368v7.88c0 .496-.175.92-.527 1.27a1.73 1.73 0 0 1-1.27.528c-.507 0-.936-.176-1.288-.527a1.733 1.733 0 0 1-.527-1.27V28.066c0-.495.176-.919.527-1.27a1.753 1.753 0 0 1 1.288-.527c.495 0 .919.175 1.27.527.352.351.527.775.527 1.27v.346a9.9 9.9 0 0 1 2.817-1.59 9.434 9.434 0 0 1 3.249-.553ZM90.151 29.88c-.853 0-1.648.161-2.385.484a6.117 6.117 0 0 0-1.919 1.304 6.178 6.178 0 0 0-1.287 1.927 5.89 5.89 0 0 0-.475 2.35c0 .83.158 1.614.475 2.351.317.738.746 1.38 1.287 1.927a6.13 6.13 0 0 0 1.919 1.305 5.885 5.885 0 0 0 2.385.484c.84 0 1.63-.161 2.367-.484a6.152 6.152 0 0 0 3.224-3.24 5.83 5.83 0 0 0 .475-2.342c0-.83-.159-1.61-.475-2.342a6.148 6.148 0 0 0-3.223-3.24 5.841 5.841 0 0 0-2.368-.484Zm21.413 0c-.853 0-1.647.161-2.385.484a6.114 6.114 0 0 0-1.918 1.304 6.172 6.172 0 0 0-1.288 1.927 5.887 5.887 0 0 0-.475 2.35c0 .83.158 1.614.475 2.351.317.738.746 1.38 1.288 1.927a6.116 6.116 0 0 0 1.918 1.305 5.885 5.885 0 0 0 2.385.484 5.84 5.84 0 0 0 2.368-.484 6.164 6.164 0 0 0 1.927-1.314 6.242 6.242 0 0 0 1.296-1.927 5.826 5.826 0 0 0 .475-2.341c0-.83-.158-1.61-.475-2.342a6.241 6.241 0 0 0-1.296-1.927 6.161 6.161 0 0 0-1.927-1.313 5.846 5.846 0 0 0-2.368-.484Zm58.71 0c-.657 0-1.296.103-1.918.31a6.31 6.31 0 0 0-1.711.873 5.97 5.97 0 0 0-1.348 1.349 5.594 5.594 0 0 0-.847 1.736h11.648a5.794 5.794 0 0 0-.873-1.736 6.204 6.204 0 0 0-3.041-2.22 5.952 5.952 0 0 0-1.91-.312ZM18.555 21.084v6.54h-6.912v-6.54h6.912Zm8.17 0v6.54h-6.913v-6.54h6.912Zm8.169 0v6.54H27.98v-6.54h6.913Zm8.169 0v6.54H36.15v-6.54h6.913Zm8.17 0v6.54H44.32v-6.54h6.912Zm-8.17-7.848v6.54H36.15v-6.54h6.913Zm-8.17 0v6.54h-6.912v-6.54h6.913Zm-8.169 0v6.54h-6.912v-6.54h6.912Zm16.339-7.849v6.54H36.15v-6.54h6.913Z"/></svg>
